X:1
T: Le Papillon
C:
R:Jig
Q:180
K:G
M:6/8
L:1/16
|:D2|G3AG2 G2d2B2|A3BA2 A2d2c2|B3AG2 c2A2F2|G2d2c2 B2A2G2|
G3AG2 G2d2B2|A3BA2 A3ag2|f2e2d2 A2d2^c2|d2A2F2 D4:|
|:B2|c3dc2 c2a2A2|B3cB2 B2g2G2|e2d2c2 B2A2G2|F2G2A2 D4B2|
c3dc2 e2d2c2|B3cB2 d2c2B2|c2B2A2 D2G2F2|G6-G4:|
